X: 1
T: Mo Dhachaidh
T: My Home
T: the Song of Home
C:
R: air, waltz
S: printed copy of unknown origin in Concord Slow Scottish Session collection
Z: 2015 John Chambers <jc:trillian.mit.edu>
M: 3/4
L: 1/8
K: G
D2 |\
"G"G4 (Gd) | B3 A G2 | "D7"F3 G A2 | F3 E D2 |\
"G"G4 (Gd) | B3 A G2 | "D7"A6 |
A2 B2 c2 |\
"G"d3 e d2 | "Em"B3 A G2 | "Bm"d3 B G2 | "D7"F3 E D2 |\
"C"c3 d e2 | "D7"(dB3) A2 | "G"G4 :|
